svg/file/link_3_line.svg

<?xml version="1.0" encoding="UTF-8"?>
<svg width="24px" height="24px" viewBox="0 0 24 24" version="1.1" xmlns="http://www.w3.org/2000/svg" xmlns:xlink="http://www.w3.org/1999/xlink">
    <title>link_3_line</title>
    <g id="Icon" stroke="none" stroke-width="1" fill="none" fill-rule="evenodd">
        <g id="File" transform="translate(-576.000000, -384.000000)">
            <g id="link_3_line" transform="translate(576.000000, 384.000000)">
                <path d="M24,0 L24,24 L0,24 L0,0 L24,0 Z M12.5935,23.2578 L12.5819,23.2595 L12.5109,23.295 L12.4919,23.2987 L12.4767,23.295 L12.4057,23.2595 C12.3958,23.2564 12.387,23.259 12.3821,23.2649 L12.378,23.2758 L12.3609,23.7031 L12.3659,23.7235 L12.3769,23.7357 L12.4805,23.8097 L12.4953,23.8136 L12.5071,23.8097 L12.6107,23.7357 L12.6233,23.7197 L12.6267,23.7031 L12.6096,23.2758 C12.6076,23.2657 12.601,23.2593 12.5935,23.2578 Z M12.8584,23.1453 L12.8445,23.1473 L12.6598,23.2397 L12.6499,23.2499 L12.6472,23.2611 L12.6651,23.6906 L12.6699,23.7034 L12.6784,23.7105 L12.8793,23.8032 C12.8914,23.8069 12.9022,23.803 12.9078,23.7952 L12.9118,23.7812 L12.8777,23.1665 C12.8753,23.1546 12.8674,23.147 12.8584,23.1453 Z M12.143,23.1473 C12.1332,23.1424 12.1222,23.1453 12.1156,23.1526 L12.1099,23.1665 L12.0758,23.7812 C12.0751,23.7927 12.0828,23.8019 12.0926,23.8046 L12.1083,23.8032 L12.3092,23.7105 L12.3186,23.7024 L12.3225,23.6906 L12.3404,23.2611 L12.3372,23.2485 L12.3278,23.2397 L12.143,23.1473 Z" id="MingCute" fill-rule="nonzero"></path>
                <path d="M1,10 C1,7.23858 3.23858,5 6,5 L12,5 C14.7614,5 17,7.23858 17,10 C17,12.7614 14.7614,15 12,15 C11.4477,15 11,14.5523 11,14 C11,13.4477 11.4477,13 12,13 C13.6569,13 15,11.6569 15,10 C15,8.34315 13.6569,7 12,7 L6,7 C4.34315,7 3,8.34315 3,10 C3,11.3965 3.95512,12.5725 5.24926,12.9055 C5.78411,13.0432 6.1061,13.5884 5.96844,14.1232 C5.83078,14.6581 5.28559,14.9801 4.75074,14.8424 C2.59442,14.2874 1,12.3312 1,10 Z M12,11 C10.3431,11 9,12.3431 9,14 C9,15.6569 10.3431,17 12,17 L18,17 C19.6569,17 21,15.6569 21,14 C21,12.6035 20.0449,11.4275 18.7507,11.0945 C18.2159,10.9568 17.8939,10.4116 18.0316,9.87676 C18.1692,9.34191 18.7144,9.01992 19.2493,9.15758 C21.4056,9.71258 23,11.6688 23,14 C23,16.7614 20.7614,19 18,19 L12,19 C9.23858,19 7,16.7614 7,14 C7,11.2386 9.23858,9 12,9 C12.5523,9 13,9.44772 13,10 C13,10.5523 12.5523,11 12,11 Z" id="形状" fill="#09244B"></path>
            </g>
        </g>
    </g>
</svg>

<svg xmlns="http://www.w3.org/2000/svg" width="24" height="24"><g fill="none" fill-rule="evenodd"><path d="M24 0v24H0V0h24ZM12.594 23.258l-.012.002-.071.035-.02.004-.014-.004-.071-.036c-.01-.003-.019 0-.024.006l-.004.01-.017.428.005.02.01.013.104.074.015.004.012-.004.104-.074.012-.016.004-.017-.017-.427c-.002-.01-.009-.017-.016-.018Zm.264-.113-.014.002-.184.093-.01.01-.003.011.018.43.005.012.008.008.201.092c.012.004.023 0 .029-.008l.004-.014-.034-.614c-.003-.012-.01-.02-.02-.022Zm-.715.002a.023.023 0 0 0-.027.006l-.006.014-.034.614c0 .012.007.02.017.024l.015-.002.201-.093.01-.008.003-.011.018-.43-.003-.012-.01-.01-.184-.092Z"/><path fill="#09244B" d="M1 10a5 5 0 0 1 5-5h6a5 5 0 0 1 0 10 1 1 0 1 1 0-2 3 3 0 1 0 0-6H6a3 3 0 0 0-.75 5.906 1 1 0 0 1-.5 1.936A5.002 5.002 0 0 1 1 10Zm11 1a3 3 0 1 0 0 6h6a3 3 0 0 0 .75-5.905 1 1 0 0 1 .5-1.937A5.002 5.002 0 0 1 18 19h-6a5 5 0 0 1 0-10 1 1 0 1 1 0 2Z"/></g></svg>
